X:6
T:Geburtstagswalzer CGF 5+ 
M:3/4
L:1/4
K:Cmaj
"C"geg | a2e | "G7"g3 | f3 | def | b2a | "C"(g3 | g)zz | geg | c'2e | "Dm/F"d2b | 
"F"a3 | "G7"g2B | g2B | "C"(c3 | c)zz || [K:Gmaj] "G"def | gab | "D7"b2c' | a3 | b2c' | 
a3 | "G"a2b | g3 | def | "G7"gab | "C"d'2c' | e3 | "G"b2c' | "D7"b2a | "G"(g3 | g)zz || [K:Cmaj] 
"C"c'2g | e2g | "F"b2a | f3 | "G7"dze | fza | "C"g3 | e3 | c'2g | e2g | "F"b2a | 
f3 | "G7"a2f | e2d | "C"c>c'c' | c'zz || [K:Fmaj] "C7"czc | dze | "F"f2c' | c'2f | "C7"e2c' | c'2e | 
"F"fag | fed | "C7"czc | dze | "F"f2c' | c'2f | "C7"e2b | a2g | "F"(f3 | f)zz |] 

